X:1478
T:Green Garters
R:reel
N:"collected from Kennedy"
B:"O'Neill's Dance Music of Ireland, 1478"
T: crioscosa glais.
Z:transcribed by John B. Walsh, 8/22/96
M:C|
L:1/8
K:D
d2 (fd) Adfd|d2 (fa) gece|d2 (fd) Adfd|edcd efge|
d2 (fd) Adfd|d2 (fa) gece|d2 (fd) Adfa|gecd (ed) d2 Hx||
agfg afdf|a2 fd efge|agfg afdf|edcd efge|
agfg afdf|a2 fd efge|afge fdec|ABcd efge !D.C.!||


